X: 10962
T: MISS JOHNSTON'S REEL
R: reel
B: K\"ohler's Violin Repository, v.1, 1885 p.96 #2
F: http://www.archive.org/details/klersviolinrepos01edin
Z: 2012 John Chambers <jc:trillian.mit.edu>
M: C|
L: 1/8
K: G
|:\
v(Bc)de (dB)Be | dBgB aBgB | (Bc)de (dB)gB | (Aa)ag (fe)dc :|
vdcBA G2(BA) | GBDB GBDB | dcBA G2(BG) | (FG)AB (ce)dc |
BABF G2(BA) | GBDB GBDB | d(Bc)(A B)(GA)(F | D)EFG AB"_Fine."cA |]

%%sep 2 1 500

